X: 33648
T: Rambles Of Rionach, The
R: polka
M: 2/4
K: Amajor
|:E>E EF|AB ce|ef cB|AF FD|
E>E EF|AB ce|ef cB|1 A2 AF:|2 A2 fg||
|:a>g fe|fe ce|ag fe|f2 fg|
a>g fe|fg a>f|ec Bc|AF FD:|

